X: 305699
M: 6/8
L: 1/8
K: G
d2d B2B | g2g d3 | c2c B2B | AFG ABc |\
d2d B2B | g2g d2B | cAG FEF | A3 "^D.C."G2 |]


